X:1
T: Skirmish $1(\251Nick Barber)
K:D
M:C|
L:1/8
%%text $1Don't play pickups at start of set.
de|"D"f4 edce|d4 ABAG|F2A2D2A2|"G"BAGF "A"E2 de|
"D"f4 edce|d4 ABAG|F2A2 "A"EFGE|F2E2"D"D2:|]
|:AG|"D"F2A2"A"E2A2|"D"F2A2"A"E2A2|"D"F2A2"A"E2A2|"G"BAGF "A"E2 DE|
"D"F2A2"A"E2A2|"D"F2A2"A"E2A2|"D"F2A2 "A"EFGE|"A"F2E2"D"D2:|]

